X: 21392
Q: "Moderately quick and with spirit."
M: 3/4
L: 1/8
K: G
d |\
dB G2 AB | dG B2 c>B | "^>"B3 A BA | (G2 D2) B>c |\
dB G2 A>B | DG B2 cB | A3B/A/ EF | D2 z2 B>c |
dB G2 A>B | DG B2 c>B | A3 B/A/ D (B/A/) | G2 z2 (F>G) |\
dB G2 A>B | DG B2 c>B | B3 A BA | (G2 D2) B>c |
dB G2 AB | DG B2 c>B | A3 B/A/Dd | G3 (c/B/A/G/F/E/) |\


